client/src/assets/logo_dark.svg

<svg width="115" height="34" viewBox="0 0 115 34" fill="none" xmlns="http://www.w3.org/2000/svg">
<path fill-rule="evenodd" clip-rule="evenodd" d="M17 34C26.3888 34 34 26.3888 34 17C34 7.61116 26.3888 0 17 0C7.61114 0 0 7.61116 0 17C0 26.3888 7.61114 34 17 34ZM22.3034 7.91931C22.5616 7.00234 21.6717 6.46011 20.859 7.0391L9.51415 15.1211C8.63278 15.749 8.77142 17 9.7224 17H12.7098V16.9768H18.5321L13.788 18.6508L11.6966 26.0807C11.4385 26.9977 12.3282 27.5399 13.141 26.9609L24.4859 18.8789C25.3672 18.251 25.2285 17 24.2776 17H19.7473L22.3034 7.91931Z" fill="#0260FF"/>
<path d="M41.728 26V9.128H44.992V26H41.728ZM44.128 26V23.12H53.464V26H44.128ZM44.128 18.776V15.992H52.624V18.776H44.128ZM44.128 12.008V9.128H53.344V12.008H44.128ZM60.5849 26.24C59.5129 26.24 58.5529 25.976 57.7049 25.448C56.8569 24.92 56.1849 24.2 55.6889 23.288C55.2089 22.376 54.9689 21.352 54.9689 20.216C54.9689 19.064 55.2089 18.032 55.6889 17.12C56.1849 16.208 56.8489 15.488 57.6809 14.96C58.5289 14.432 59.4969 14.168 60.5849 14.168C61.4169 14.168 62.1609 14.336 62.8169 14.672C63.4889 15.008 64.0249 15.48 64.4249 16.088C64.8409 16.68 65.0649 17.352 65.0969 18.104V22.232C65.0649 22.984 64.8489 23.664 64.4489 24.272C64.0489 24.88 63.5129 25.36 62.8409 25.712C62.1689 26.064 61.4169 26.24 60.5849 26.24ZM61.1129 23.336C61.7049 23.336 62.2169 23.208 62.6489 22.952C63.0969 22.68 63.4409 22.312 63.6809 21.848C63.9369 21.368 64.0649 20.816 64.0649 20.192C64.0649 19.584 63.9369 19.048 63.6809 18.584C63.4409 18.104 63.0969 17.736 62.6489 17.48C62.2169 17.208 61.7129 17.072 61.1369 17.072C60.5449 17.072 60.0249 17.208 59.5769 17.48C59.1449 17.752 58.8009 18.12 58.5449 18.584C58.3049 19.048 58.1849 19.584 58.1849 20.192C58.1849 20.816 58.3049 21.368 58.5449 21.848C58.8009 22.312 59.1529 22.68 59.6009 22.952C60.0489 23.208 60.5529 23.336 61.1129 23.336ZM67.0169 26H63.8969V22.88L64.4009 20.048L63.8729 17.264V8.648H67.0169V26ZM75.3423 26.24C74.1263 26.24 73.0463 25.984 72.1023 25.472C71.1583 24.944 70.4063 24.224 69.8463 23.312C69.3023 22.4 69.0303 21.36 69.0303 20.192C69.0303 19.04 69.2943 18.016 69.8223 17.12C70.3663 16.208 71.1023 15.488 72.0303 14.96C72.9583 14.416 73.9903 14.144 75.1263 14.144C76.2463 14.144 77.2303 14.4 78.0783 14.912C78.9423 15.408 79.6143 16.096 80.0943 16.976C80.5903 17.84 80.8383 18.824 80.8383 19.928C80.8383 20.136 80.8223 20.352 80.7903 20.576C80.7743 20.784 80.7343 21.024 80.6703 21.296L70.9263 21.32V18.968L79.2063 18.944L77.9343 19.928C77.9023 19.24 77.7743 18.664 77.5503 18.2C77.3423 17.736 77.0303 17.384 76.6143 17.144C76.2143 16.888 75.7183 16.76 75.1263 16.76C74.5023 16.76 73.9583 16.904 73.4943 17.192C73.0303 17.464 72.6703 17.856 72.4143 18.368C72.1743 18.864 72.0543 19.456 72.0543 20.144C72.0543 20.848 72.1823 21.464 72.4383 21.992C72.7103 22.504 73.0943 22.904 73.5903 23.192C74.0863 23.464 74.6623 23.6 75.3183 23.6C75.9103 23.6 76.4463 23.504 76.9263 23.312C77.4063 23.104 77.8223 22.8 78.1743 22.4L80.0223 24.248C79.4623 24.904 78.7743 25.4 77.9583 25.736C77.1583 26.072 76.2863 26.24 75.3423 26.24ZM82.7826 26V14.408H85.9266V26H82.7826ZM90.3426 26V19.16C90.3426 18.488 90.1266 17.968 89.6946 17.6C89.2786 17.216 88.7586 17.024 88.1346 17.024C87.7186 17.024 87.3426 17.112 87.0066 17.288C86.6706 17.448 86.4066 17.688 86.2146 18.008C86.0226 18.328 85.9266 18.712 85.9266 19.16L84.7026 18.56C84.7026 17.664 84.8946 16.888 85.2786 16.232C85.6786 15.576 86.2146 15.072 86.8866 14.72C87.5586 14.352 88.3186 14.168 89.1666 14.168C89.9666 14.168 90.6946 14.352 91.3506 14.72C92.0066 15.072 92.5266 15.576 92.9106 16.232C93.2946 16.872 93.4866 17.648 93.4866 18.56V26H90.3426ZM97.9026 26V19.16C97.9026 18.488 97.6866 17.968 97.2546 17.6C96.8386 17.216 96.3186 17.024 95.6946 17.024C95.2946 17.024 94.9186 17.112 94.5666 17.288C94.2306 17.448 93.9666 17.688 93.7746 18.008C93.5826 18.328 93.4866 18.712 93.4866 19.16L91.6866 18.728C91.7506 17.8 91.9986 17 92.4306 16.328C92.8626 15.64 93.4306 15.112 94.1346 14.744C94.8386 14.36 95.6226 14.168 96.4866 14.168C97.3506 14.168 98.1266 14.352 98.8146 14.72C99.5026 15.072 100.047 15.584 100.447 16.256C100.847 16.928 101.047 17.728 101.047 18.656V26H97.9026ZM107.243 26.096L102.395 14.408H105.803L109.019 23.336H107.867L111.203 14.408H114.635L109.475 26.096H107.243ZM104.027 30.848L107.555 23.384L109.475 26.096L107.363 30.848H104.027Z" fill="white"/>
</svg>

<?xml version="1.0"?>
<svg width="115" height="34" xmlns="http://www.w3.org/2000/svg" xmlns:svg="http://www.w3.org/2000/svg">
 <g class="layer">
  <title>Layer 1</title>
  <path clip-rule="evenodd" d="m17,34c9.39,0 17,-7.61 17,-17c0,-9.39 -7.61,-17 -17,-17c-9.39,0 -17,7.61 -17,17c0,9.39 7.61,17 17,17zm5.3,-26.08c0.26,-0.92 -0.63,-1.46 -1.44,-0.88l-11.35,8.08c-0.88,0.63 -0.74,1.88 0.21,1.88l2.99,0l0,-0.02l5.82,0l-4.74,1.67l-2.09,7.43c-0.26,0.92 0.63,1.46 1.44,0.88l11.35,-8.08c0.88,-0.63 0.74,-1.88 -0.21,-1.88l-4.53,0l2.55,-9.08z" fill="#0260FF" fill-rule="evenodd" id="svg_1">S</path>
  <text fill="#ffffff" font-family="Monospace" font-size="26" font-style="normal" font-weight="normal" id="svg_4" letter-spacing="0" stroke-width="0" text-anchor="middle" transform="matrix(0.838207 0 0 0.88166 14.145 3.89735)" x="75.61" xml:space="preserve" y="23.73">Seeker</text>
 </g>
</svg>
